X:78
T:Won't You Buy My Pretty Flowers?
Z:Jack Campin, http://www.campin.me.uk/
F:Jack Campin's Nine-Note Tunebook
% last edit 03-02-2013
G:Victorian sentimental ballad
M:3/4
L:1/4
Q:1/4=120
K:F                                                                                                    
A2c|B2A|G2D|ED2|C2F|[1 EF2|A2 c|G3:|\
                    [2 AB2|A2 G|F3||
A2B|AE2|G2A|FD2|F2E|   F2A|G2=B|c3 |
A2c|B2A|G2D|ED2|C2F|   A2B|A G2|F3||
c2d|cA2|B2c|BG2|A2G|   FA2|G2=B|c3 |
A2c|B2A|G2D|ED2|C2F|   A2B|A G2|F3|]

